X: 1
T:The Fifer's Reel
R:reel
H:From memory.
B:Joyce, P. W.; "Old Irish Folk Music and Songs"
K:G
L:1/8
M:C
dc|BcdB G2 GF|GBAF G2 dc|BcdB G2 AG|FGAB cAdc|
BcdB G2 GF|GBAF GABc|dBcA BGAG|FGAB cA:|
|:dc|Bcde dBGB|dg g2 bg g2|Bcde dcBc|Aaaf gedc|
Bcde dBGB|defa g2 fg|afdg ecAG|1 FGAB cA:|2 FGAB G2|]
